X:1
T:[ID 2-55a]
T:[ID 2-55a]
T:Bezeichnung standardisiert: Englischer oder demi Chaine; Tantz
T:Urheber unbekannt Datum in der hier transkribierten schriftlichen Quelle: 1767
C:Urheber unbekannt
C:Datum in der hier transkribierten schriftlichen Quelle: 1767
L:1/8
M:2/4
K:D
V:1 treble 
V:1
 Ad d(c/d/) | ee e2 | Ad c/d/e/c/ | dAFD | Ad d(c/d/) | ee e2 | Ad c/d/e/c/ | d2 D2 :: %8
 ff f (e/f/) | gg g2 | ee e(d/e/) | ff f2 | Ad d(c/d/) | ee e2 | Ad c/d/e/c/ | d2 D2 :| %16

